X:1
T:Send Forth Thy Light
T:Mily Balakirev
T:Psalm 43: 3,5
T:Send Forth Thy Light
T:Copyright © 2019 by The Choral Public Domain Library. Edition may be freely distributed, duplicated, performed or recorded.
T:Copyright © 2019 by The Choral Public Domain Library. Edition may be freely distributed, duplicated, performed or recorded.
T:Copyright © 2019 by The Choral Public Domain Library. Edition may be freely distributed, duplicated, performed or recorded.
T:Copyright © 2019 by The Choral Public Domain Library. Edition may be freely distributed, duplicated, performed or recorded.
T:Copyright © 2019 by The Choral Public Domain Library. Edition may be freely distributed, duplicated, performed or recorded.
C:Mily Balakirev
Z:Psalm 43: 3,5
Z:Copyright © 2019 by The Choral Public Domain Library. Edition may be freely distributed, duplicated, performed or recorded.
%%score [ 1 2 3 4 ]
L:1/8
Q:1/4=96
M:3/4
K:G
V:1 treble nm="Soprano" snm="S."
V:2 treble nm="Alto" snm="A."
V:3 treble-8 transpose=-12 nm="Tenor" snm="T."
V:4 bass nm="Baritone" snm="Bar."
V:1
 B2 B2 B2 | !fermata!B4 B2 | B4 B2 | !fermata!B4 c2 | (B2 A2) =G2 | F4 G2 | (F2 E4-) | %7
w: Send forth Thy|light, sent|forth Thy|truth, and|let _ them|lead me,|let _|
 E2!<(! (G2!<)! A2) | B4 B2 | A4 F2 | (A2 G2) G2 | (G4 !fermata!A2) | G4 F2 |"^rit." E2 F2 G2 | %14
w: _ them _|lead me|to Thy|ho- * ly|hill, _|e- ven|un- to Thy|
!>(! (F6 | E4)!>)! D2 | D6- | !fermata!D4 z2 | z6 | z6 | z6 | z2 z2!f! A2 |!<(! d4!<)! e2 | %23
w: ho-|* ly|hill.|_||||My|soul shall|
 (!>!=f3 e) d2 | c4 A2 | B4 G2 | e4 e2 | A2 A2 A2 | d6 | G2 G2 G2 | c6 |"^rit." F2 F2 F2 | %32
w: praise _ the|Lord in|heav'n, whose|glo- ry|yet I will|sing,|who is the|hope|of my sal-|
!>(! B6!>)! |[Q:1/4=50] !fermata!E2 A2 A2 | !fermata!B6 ||!pp![Q:1/4=96] B2 B2 B2 | %36
w: va-|tion, and my|God.|Send forth Thy|
 !fermata!B4 B2 | B4 B2 | !fermata!B4 c2 | (B2 A2) =G2 | F4 !fermata!G2 | F6 | E6- | %43
w: light, sent|forth Thy|truth, and|let _ them|lead me,|let|me|
 !fermata!E2!pp! E2 E2 | (E6 | A4) B2 | !fermata![GB]6 |] %47
w: _ to Thy|ho-|* ly|hill.|
V:2
 G2 G2 G2 | !fermata!G4 G2 | A4 A2 | !fermata!^G4 G2 | E4 E2 | E4 ^D2 | (C4 =D2 | C2) (E2 D2) | %8
w: Send forth Thy|light, sent|forth Thy|truth, and|let them|lead me,|let _|_ them _|
 D4 E2 | (E2 D2) A,2 | (F2 E2) E2 | !fermata!E6 | D4 D2 | D2 D2 D2 | (D6 | B,2 ^C2) A,2 | A,6- | %17
w: lead me|to _ Thy|ho- * ly|hill,|e- ven|un- to Thy|ho-|* * ly|hill.|
 !fermata!A,4!f! D2 | A4!<(! B2 | (c3!<)! B) A2 | G4 E2 | F4 D2 | [FA]4 [FA]2 | [=FG]4 F2 | %24
w: _ My|soul shall|praise _ the|Lord in|heav'n, my|soul shall|praise the|
 =F4 F2 | =F4 G2 | G4 G2 | ^F2 F2 F2 | =F6 | E2 E2 E2 | E6 | ^D2 D2 D2 | E6 | !fermata!E2 E2 F2 | %34
w: Lord in|heav'n, whose|glo- ry|yet I will|sing,|who is the|hope|of my sal-|va-|tion, and my|
 !fermata![DG]6 || G2 G2 G2 | !fermata!G4 G2 | A4 A2 | !fermata!^G4 G2 | E4 E2 | B,4 !fermata!B,2 | %41
w: God.|Send forth Thy|light, sent|forth Thy|truth, and|let them|lead me,|
 ^C6 | ^C6- | !fermata!C2 =C2 C2 | (C6 | D4) D2 | !fermata!D6 |] %47
w: let|me|_ to Thy|ho-|* ly|hill.|
V:3
 d2 d2 d2 | !fermata!d4 d2 | d4 d2 | (d2 !fermata!e2) e2 | (^G2 A2) B2 | c4 (BA) | (=G4 ^G2 | %7
w: Send forth Thy|light, sent|forth Thy|truth, _ and|let _ them|lead me, _|let _|
 A2) c4 | B4 B2 | (^c2 d2) =c2 | B4 B2 | (_B2 !fermata!A4) | A4 A2 | =B2 A2 G2 | (A2 B2 F2 | %15
w: _ them|lead me|to _ Thy|ho- ly|hill, _|e- ven|un- to Thy|ho- * *|
 G4) F2 | F6- | !fermata!F4 z2 | z6 | z2 z2!f! D2 | (E3!<(! F) G2 | (A2!<)! B2) c2 | (c6 | B4) G2 | %24
w: * ly|hill.|_||My|soul _ shall|praise _ the|Lord,|_ the|
 (A3 B) c2 | d4 =f2 | (e3 d) c2 | c2 d2 e2 | (d3 c B2) | B2 c2 d2 | (c3 B A2) | A2 B2 c2 | =d6 | %33
w: Lord _ in|heav'n, whose|glo- * ry|yet I will|sing, _ _|who is the|hope _ _|of my sal-|va-|
 !fermata!c2 c2 c2 | !fermata!B6 || d2 d2 d2 | !fermata!d4 d2 | d4 d2 | (d2 !fermata!e2) e2 | %39
w: tion, and my|God.|Send forth Thy|light, sent|forth Thy|truth, _ and|
 (^G2 A2) B2 | A4 !fermata!=G2 | G6 | G6- | !fermata!G2 G2 G2 | ((G6 | [Fc]4)) [Fc]2 | %46
w: let _ them|lead me,|let|me|_ to Thy|ho-|* ly|
 !fermata![GB]6 |] %47
w: hill.|
V:4
 G,2 G,2 G,2 | !fermata!G,4 G,2 | =F,4 F,2 | !fermata!E,4 D,2 | C,4 B,,2 | A,,4 B,,2 | (C,4 B,,2 | %7
w: Send forth Thy|light, sent|forth Thy|truth, and|let them|lead me,|let _|
 A,,2) (G,,2 F,,2) | G,,4 G,2 | (G,2 F,2) D,2 | (^D,2 E,2) =D,2 | !fermata!^C,6 | D,4 D,2 | %13
w: _ them _|lead me|to _ Thy|ho- * ly|hill,|e- ven|
 G,,2 A,,2 B,,2 | A,,6- | A,,4 D,2 | D,6- | !fermata!D,4 z2 | z2 z2!mf! D,2 | D,4 D,2 | D,4 D,2 | %21
w: un- to Thy|ho-|* ly|hill.|_|My|soul shall|praise the|
 D,4!f! D,2 | D,4 D,2 | D,6- | D,4 D,2 | (G,,3 A,,) B,,2 | (C,3 D,) E,2 | E,2 D,2 C,2 | %28
w: Lord shall|praise the|Lord|_ in|heav'n, _ whose|glo- * ry|yet I will|
 (B,,3 C, D,2) | D,2 C,2 B,,2 | (A,,3 B,, C,2) | C,2 B,,2 A,,2 | (G,,2 ^G,,4) | %33
w: sing, _ _|who is the|hope _ _|of my sal-|va- *|
 !fermata!A,,2 C,2 D,2 | !fermata![G,,D,]6 || G,2 G,2 G,2 | !fermata!G,4 G,2 | =F,4 F,2 | %38
w: tion, and my|God.|Send forth Thy|light, sent|forth Thy|
 !fermata!E,4 D,2 | C,4 B,,2 | (^C,2 ^D,2) !fermata!E,2 | A,,6 | A,,6- | %43
w: truth, and|let them|lead _ me,|let|me|
 !fermata!A,,2 [D,,D,]2 [D,,D,]2 | [D,,D,]6- | [D,,D,]4 [D,,D,]2 | !fermata![G,,D,]6 |] %47
w: _ to Thy|ho-|* ly|hill.|

